X:79
T:No.79 Doodley,Doodley Dank
C:slip jig
M:9/8
L:1/8
K:D
BdB BABg3|BdBB2e dBA|
BdB BABg2e|faf efe dBA:|
fdd defg3|fdd dcd ecA|
fdd defg2e|fed edB efg:|
